X: 14151
T: Frog, The
R: reel
M: 4/4
K: Gmajor
|:dc|{Bd}B2 AG AFDA|FDAF DEFG|ABcA defg|abag fadc|
{Bd}B2 AG AFDA|FDAF DEFG|AB (3cBA|dcAF G2:|
|:Bc|dg ~g2 bggd|BcdB GBAG|FGAB cAag|fgaf d2 Bc|
dg ~g2 bggd|BcdB GBAG|FGAB cAag|fdcA G2:|

